;FLAVOR:Marlin
;TIME:8156
;Filament used: 3.11613m
;Layer height: 0.2
;MINX:50.664
;MINY:75.514
;MINZ:0.2
;MAXX:119.636
;MAXY:144.486
;MAXZ:25
;TARGET_MACHINE.NAME:Creality Ender-3 Pro
;Generated with Cura_SteamEngine 5.6.0
M82 ;absolute extrusion mode
; Ender 3 Custom Start G-code
G92 E0 ; Reset Extruder
G28 ; Home all axes
G1 Z5.0 F3000 ; Move Z Axis up a bit during heating to not damage bed
M104 S175 ; Start heating up the nozzle most of the way
M190 S60 ; Start heating the bed, wait until target temperature reached
M109 S220.0 ; Finish heating the nozzle
G1 Z2.0 F3000 ; Move Z Axis up little to prevent scratching of Heat Bed
G1 X0.1 Y20 Z0.3 F5000.0 ; Move to start position
G1 X0.1 Y200.0 Z0.3 F1500.0 E15 ; Draw the first line
G1 X0.4 Y200.0 Z0.3 F5000.0 ; Move to side a little
G1 X0.4 Y20 Z0.3 F1500.0 E30 ; Draw the second line
G92 E0 ; Reset Extruder
G1 Z2.0 F3000 ; Move Z Axis up little to prevent scratching of Heat Bed
G1 X5 Y20 Z0.3 F5000.0 ; Move over to prevent blob squish
G92 E0
G92 E0
G1 F1500 E-6.5
;LAYER_COUNT:125
;LAYER:0
M107
G0 F6000 X63.829 Y82.892 Z0.2
;TYPE:SKIRT
G1 F1500 E0
G1 F1200 X64.536 Y82.351 E0.02961
G1 X65.246 Y81.836 E0.05878
G1 X65.999 Y81.319 E0.08916
G1 X67.038 Y80.652 E0.13023
G1 X68.034 Y80.06 E0.16876
G1 X69.207 Y79.418 E0.21324
G1 X69.929 Y79.054 E0.24013
G1 X71.077 Y78.515 E0.28231
G1 X71.896 Y78.161 E0.31199
G1 X73 Y77.722 E0.35151
G1 X73.836 Y77.422 E0.38105
G1 X75.056 Y77.022 E0.42375
G1 X75.866 Y76.786 E0.45181
G1 X76.804 Y76.539 E0.48407
G1 X77.638 Y76.341 E0.51258
G1 X79.192 Y76.03 E0.56529
G1 X80.015 Y75.899 E0.59301
G1 X81.296 Y75.728 E0.636
G1 X82.144 Y75.644 E0.66434
G1 X83.407 Y75.555 E0.70645
G1 X84.278 Y75.524 E0.73544
G1 X85.511 Y75.514 E0.77645
G1 X86.367 Y75.536 E0.80493
G1 X87.642 Y75.602 E0.84739
G1 X88.547 Y75.68 E0.8776
G1 X89.439 Y75.781 E0.90746
G1 X90.247 Y75.891 E0.93458
G1 X91.56 Y76.115 E0.97889
G1 X92.381 Y76.278 E1.00673
G1 X93.599 Y76.563 E1.04833
G1 X94.767 Y76.882 E1.0886
G1 X95.984 Y77.258 E1.13097
G1 X96.777 Y77.533 E1.15888
G1 X97.92 Y77.964 E1.19951
G1 X98.743 Y78.306 E1.22915
G1 X99.621 Y78.697 E1.26112
G1 X100.413 Y79.073 E1.29028
G1 X101.776 Y79.783 E1.3414
G1 X102.547 Y80.223 E1.37092
G1 X103.36 Y80.714 E1.40251
G1 X104.354 Y81.356 E1.44187
G1 X105.385 Y82.072 E1.48362
G1 X106.083 Y82.591 E1.51255
G1 X106.809 Y83.162 E1.54327
G1 X107.693 Y83.9 E1.58157
G1 X108.452 Y84.576 E1.61537
G1 X109.022 Y85.108 E1.64131
G1 X110.147 Y86.242 E1.69444
G1 X110.763 Y86.905 E1.72454
G1 X111.369 Y87.597 E1.75513
G1 X111.906 Y88.241 E1.78302
G1 X112.919 Y89.548 E1.83802
G1 X113.395 Y90.211 E1.86517
G1 X113.919 Y90.982 E1.89617
G1 X114.565 Y91.996 E1.93616
G1 X115.191 Y93.059 E1.97719
G1 X115.471 Y93.565 E1.99642
G1 X116.182 Y94.954 E2.04832
G1 X116.556 Y95.753 E2.07767
G1 X117.052 Y96.899 E2.1192
G1 X117.362 Y97.685 E2.1473
G1 X117.686 Y98.564 E2.17846
G1 X117.973 Y99.414 E2.2083
G1 X118.335 Y100.614 E2.24999
G1 X118.649 Y101.8 E2.29079
G1 X118.845 Y102.65 E2.31981
G1 X119.019 Y103.495 E2.3485
G1 X119.287 Y105.088 E2.40223
G1 X119.395 Y105.921 E2.43017
G1 X119.525 Y107.205 E2.47309
G1 X119.565 Y107.747 E2.49117
G1 X119.631 Y109.32 E2.54353
G1 X119.636 Y110.168 E2.57174
G1 X119.619 Y111.118 E2.60334
G1 X119.582 Y111.972 E2.63177
G1 X119.457 Y113.521 E2.68346
G1 X119.351 Y114.438 E2.71416
G1 X119.221 Y115.343 E2.74457
G1 X119.087 Y116.145 E2.77161
G1 X118.75 Y117.773 E2.82691
G1 X118.546 Y118.603 E2.85534
G1 X118.304 Y119.496 E2.88611
G1 X117.962 Y120.619 E2.92515
G1 X117.662 Y121.506 E2.9563
G1 X117.366 Y122.311 E2.98482
G1 X116.893 Y123.481 E3.0268
G1 X116.413 Y124.557 E3.06598
G1 X115.997 Y125.421 E3.09788
G1 X115.438 Y126.494 E3.13812
G1 X114.999 Y127.274 E3.16789
G1 X114.552 Y128.025 E3.19696
G1 X113.683 Y129.375 E3.25036
G1 X113.215 Y130.043 E3.27748
G1 X112.446 Y131.078 E3.32037
G1 X111.896 Y131.77 E3.34977
G1 X111.316 Y132.464 E3.37985
G1 X110.747 Y133.112 E3.40854
G1 X109.629 Y134.295 E3.46267
G1 X109.022 Y134.887 E3.49087
G1 X108.09 Y135.752 E3.53317
G1 X107.482 Y136.279 E3.55993
G1 X106.471 Y137.108 E3.60341
G1 X105.777 Y137.639 E3.63248
G1 X105.058 Y138.159 E3.66199
G1 X104.301 Y138.681 E3.69257
G1 X103.262 Y139.348 E3.73364
G1 X102.266 Y139.94 E3.77218
G1 X101.093 Y140.582 E3.81665
G1 X100.371 Y140.946 E3.84354
G1 X99.223 Y141.485 E3.88573
G1 X98.404 Y141.839 E3.9154
G1 X97.3 Y142.278 E3.95492
G1 X96.464 Y142.578 E3.98446
G1 X95.244 Y142.978 E4.02716
G1 X94.434 Y143.214 E4.05522
G1 X93.496 Y143.461 E4.08748
G1 X92.662 Y143.659 E4.11599
G1 X91.108 Y143.97 E4.1687
G1 X90.285 Y144.101 E4.19642
G1 X89.004 Y144.272 E4.23941
G1 X88.156 Y144.356 E4.26775
G1 X86.893 Y144.445 E4.30986
G1 X86.022 Y144.476 E4.33885
G1 X84.789 Y144.486 E4.37986
G1 X83.933 Y144.464 E4.40834
G1 X82.658 Y144.398 E4.4508
G1 X81.753 Y144.32 E4.48102
G1 X80.861 Y144.219 E4.51087
G1 X80.053 Y144.109 E4.53799
G1 X78.74 Y143.885 E4.5823
G1 X77.919 Y143.722 E4.61014
G1 X76.701 Y143.437 E4.65174
G1 X75.533 Y143.118 E4.69201
G1 X74.316 Y142.742 E4.73438
G1 X73.523 Y142.467 E4.76229
G1 X72.38 Y142.036 E4.80292
G1 X71.557 Y141.694 E4.83257
G1 X70.679 Y141.303 E4.86453
G1 X69.887 Y140.927 E4.89369
G1 X68.524 Y140.217 E4.94481
G1 X67.753 Y139.777 E4.97433
G1 X66.94 Y139.286 E5.00592
G1 X65.948 Y138.646 E5.04519
G1 X65.178 Y138.115 E5.0763
G1 X64.454 Y137.589 E5.10606
G1 X63.49 Y136.837 E5.14673
G1 X62.854 Y136.313 E5.17413
G1 X61.844 Y135.42 E5.21897
G1 X61.029 Y134.649 E5.25629
G1 X60.148 Y133.753 E5.29808
G1 X59.525 Y133.081 E5.32856
G1 X58.927 Y132.398 E5.35875
G1 X58.197 Y131.514 E5.39689
G1 X57.582 Y130.722 E5.43024
G1 X56.907 Y129.789 E5.46854
G1 X56.196 Y128.738 E5.51074
G1 X55.735 Y128.004 E5.53957
G1 X55.109 Y126.941 E5.5806
G1 X54.829 Y126.435 E5.59984
G1 X54.118 Y125.046 E5.65174
G1 X53.746 Y124.25 E5.68096
G1 X53.37 Y123.391 E5.71215
G1 X53.046 Y122.597 E5.74067
G1 X52.613 Y121.431 E5.78204
G1 X52.329 Y120.591 E5.81153
G1 X51.966 Y119.387 E5.85336
G1 X51.734 Y118.529 E5.88292
G1 X51.455 Y117.349 E5.92325
G1 X51.277 Y116.479 E5.95278
G1 X51.062 Y115.233 E5.99484
G1 X50.943 Y114.399 E6.02286
G1 X50.804 Y113.119 E6.06568
G1 X50.736 Y112.256 E6.09447
G1 X50.669 Y110.68 E6.14694
G1 X50.664 Y109.832 E6.17514
G1 X50.681 Y108.882 E6.20675
G1 X50.718 Y108.028 E6.23518
G1 X50.843 Y106.479 E6.28686
G1 X50.949 Y105.562 E6.31757
G1 X51.079 Y104.657 E6.34798
G1 X51.219 Y103.824 E6.37607
G1 X51.55 Y102.227 E6.43032
G1 X51.754 Y101.397 E6.45874
G1 X51.996 Y100.504 E6.48952
G1 X52.339 Y99.377 E6.5287
G1 X52.64 Y98.494 E6.55973
G1 X52.944 Y97.669 E6.58897
G1 X53.538 Y96.214 E6.64124
G1 X53.892 Y95.431 E6.66982
G1 X54.307 Y94.571 E6.70158
G1 X54.862 Y93.506 E6.74152
G1 X55.302 Y92.724 E6.77137
G1 X55.769 Y91.942 E6.80166
G1 X56.617 Y90.625 E6.85376
G1 X57.085 Y89.957 E6.88089
G1 X57.854 Y88.922 E6.92377
G1 X58.406 Y88.227 E6.95329
G1 X58.987 Y87.532 E6.98342
G1 X59.551 Y86.89 E7.01185
G1 X60.681 Y85.695 E7.06655
G1 X61.289 Y85.101 E7.09482
G1 X61.964 Y84.468 E7.1256
G1 X62.797 Y83.737 E7.16246
G1 X63.829 Y82.892 E7.20682
G0 F6000 X64.072 Y83.21
G1 F1200 X64.771 Y82.675 E7.2361
G1 X65.473 Y82.166 E7.26494
G1 X66.215 Y81.656 E7.29488
G1 X67.243 Y80.996 E7.33552
G1 X68.226 Y80.411 E7.37356
G1 X69.387 Y79.775 E7.41759
G1 X70.099 Y79.416 E7.44411
G1 X71.235 Y78.882 E7.48586
G1 X72.044 Y78.533 E7.51517
G1 X73.148 Y78.094 E7.55468
G1 X73.961 Y77.802 E7.58341
G1 X75.168 Y77.406 E7.62566
G1 X75.968 Y77.173 E7.65338
G1 X76.896 Y76.928 E7.6853
G1 X77.717 Y76.733 E7.71337
G1 X79.255 Y76.425 E7.76554
G1 X80.068 Y76.295 E7.79292
G1 X81.335 Y76.126 E7.83543
G1 X82.172 Y76.043 E7.86341
G1 X83.421 Y75.955 E7.90505
G1 X84.281 Y75.924 E7.93368
G1 X85.501 Y75.914 E7.97426
G1 X86.346 Y75.935 E8.00237
G1 X87.608 Y76.001 E8.0444
G1 X88.513 Y76.079 E8.07461
G1 X89.385 Y76.177 E8.1038
G1 X90.18 Y76.285 E8.13048
G1 X91.482 Y76.507 E8.17441
G1 X92.29 Y76.667 E8.20181
G1 X93.494 Y76.949 E8.24294
G1 X94.649 Y77.264 E8.28276
G1 X95.853 Y77.636 E8.32467
G1 X96.636 Y77.907 E8.35223
G1 X97.767 Y78.334 E8.39244
G1 X98.58 Y78.671 E8.42171
G1 X99.449 Y79.058 E8.45335
G1 X100.228 Y79.428 E8.48203
G1 X101.591 Y80.138 E8.53315
G1 X102.34 Y80.565 E8.56182
G1 X103.143 Y81.05 E8.59302
G1 X104.126 Y81.684 E8.63193
G1 X105.146 Y82.393 E8.67324
G1 X105.836 Y82.906 E8.70184
G1 X106.553 Y83.469 E8.73216
G1 X107.427 Y84.199 E8.77004
G1 X108.179 Y84.868 E8.80352
G1 X108.738 Y85.39 E8.82895
G1 X109.854 Y86.514 E8.88164
G1 X110.462 Y87.169 E8.91136
G1 X111.062 Y87.853 E8.94162
G1 X111.59 Y88.486 E8.96904
G1 X112.594 Y89.781 E9.02354
G1 X113.064 Y90.436 E9.05035
G1 X113.582 Y91.197 E9.08097
G1 X114.22 Y92.199 E9.12048
G1 X114.841 Y93.253 E9.16117
G1 X115.115 Y93.747 E9.17996
G1 X115.82 Y95.123 E9.23138
G1 X116.189 Y95.912 E9.26035
G1 X116.68 Y97.046 E9.30145
G1 X116.987 Y97.823 E9.32924
G1 X117.307 Y98.692 E9.36004
G1 X117.59 Y99.53 E9.38946
G1 X117.948 Y100.716 E9.43066
G1 X118.259 Y101.89 E9.47106
G1 X118.453 Y102.731 E9.49976
G1 X118.627 Y103.576 E9.52846
G1 X118.89 Y105.14 E9.58121
G1 X118.997 Y105.961 E9.60874
G1 X119.126 Y107.234 E9.6513
G1 X119.165 Y107.764 E9.66898
G1 X119.231 Y109.322 E9.72084
G1 X119.236 Y110.161 E9.74875
G1 X119.219 Y111.101 E9.78002
G1 X119.183 Y111.94 E9.80795
G1 X119.06 Y113.475 E9.85917
G1 X118.955 Y114.381 E9.8895
G1 X118.827 Y115.277 E9.9196
G1 X118.695 Y116.064 E9.94615
G1 X118.362 Y117.677 E10.00093
G1 X118.16 Y118.498 E10.02905
G1 X117.921 Y119.38 E10.05944
G1 X117.583 Y120.491 E10.09806
G1 X117.286 Y121.368 E10.12886
G1 X116.995 Y122.161 E10.15696
G1 X116.528 Y123.318 E10.19845
G1 X116.053 Y124.383 E10.23724
G1 X115.642 Y125.236 E10.26873
G1 X115.089 Y126.298 E10.30856
G1 X114.655 Y127.07 E10.33801
G1 X114.216 Y127.808 E10.36657
G1 X113.355 Y129.145 E10.41946
G1 X112.887 Y129.813 E10.44659
G1 X112.133 Y130.829 E10.48867
G1 X111.589 Y131.514 E10.51777
G1 X111.016 Y132.2 E10.5475
G1 X110.456 Y132.837 E10.57571
G1 X109.338 Y134.02 E10.62984
G1 X108.75 Y134.594 E10.65717
G1 X107.828 Y135.45 E10.69902
G1 X107.228 Y135.97 E10.72543
G1 X106.228 Y136.79 E10.76844
G1 X105.542 Y137.315 E10.79717
G1 X104.831 Y137.83 E10.82637
G1 X104.085 Y138.344 E10.8565
G1 X103.057 Y139.004 E10.89713
G1 X102.074 Y139.589 E10.93518
G1 X100.913 Y140.225 E10.97921
G1 X100.201 Y140.584 E11.00573
G1 X99.065 Y141.118 E11.04748
G1 X98.256 Y141.467 E11.07678
G1 X97.152 Y141.906 E11.1163
G1 X96.339 Y142.198 E11.14503
G1 X95.132 Y142.594 E11.18728
G1 X94.332 Y142.827 E11.215
G1 X93.404 Y143.072 E11.24692
G1 X92.583 Y143.267 E11.27499
G1 X91.045 Y143.575 E11.32716
G1 X90.232 Y143.705 E11.35454
G1 X88.965 Y143.874 E11.39705
G1 X88.128 Y143.957 E11.42503
G1 X86.879 Y144.045 E11.46667
G1 X86.019 Y144.076 E11.4953
G1 X84.799 Y144.086 E11.53587
G1 X83.954 Y144.065 E11.56399
G1 X82.692 Y143.999 E11.60602
G1 X81.787 Y143.921 E11.63623
G1 X80.915 Y143.823 E11.66542
G1 X80.12 Y143.715 E11.6921
G1 X78.818 Y143.493 E11.73603
G1 X78.01 Y143.333 E11.76343
G1 X76.806 Y143.051 E11.80456
G1 X75.651 Y142.736 E11.84437
G1 X74.447 Y142.364 E11.88629
G1 X73.664 Y142.093 E11.91385
G1 X72.533 Y141.666 E11.95405
G1 X71.72 Y141.329 E11.98333
G1 X70.851 Y140.942 E12.01497
G1 X70.072 Y140.572 E12.04365
G1 X68.709 Y139.862 E12.09477
G1 X67.96 Y139.435 E12.12344
G1 X67.157 Y138.95 E12.15464
G1 X66.175 Y138.317 E12.1935
G1 X65.413 Y137.791 E12.2243
G1 X64.7 Y137.273 E12.25361
G1 X63.744 Y136.528 E12.29392
G1 X63.119 Y136.013 E12.32086
G1 X62.119 Y135.13 E12.36523
G1 X61.314 Y134.368 E12.40209
G1 X60.441 Y133.481 E12.44349
G1 X59.826 Y132.818 E12.47357
G1 X59.235 Y132.143 E12.50341
G1 X58.513 Y131.269 E12.54111
G1 X57.906 Y130.487 E12.57404
G1 X57.238 Y129.565 E12.61191
G1 X56.535 Y128.525 E12.65366
G1 X56.08 Y127.801 E12.6821
G1 X55.459 Y126.747 E12.72279
G1 X55.185 Y126.253 E12.74158
G1 X54.48 Y124.877 E12.793
G1 X54.112 Y124.09 E12.82189
G1 X53.74 Y123.24 E12.85275
G1 X53.421 Y122.458 E12.88084
G1 X52.992 Y121.303 E12.92182
G1 X52.712 Y120.475 E12.9509
G1 X52.352 Y119.282 E12.99234
G1 X52.123 Y118.437 E13.02146
G1 X51.847 Y117.269 E13.06138
G1 X51.671 Y116.411 E13.09051
G1 X51.458 Y115.176 E13.13219
G1 X51.341 Y114.356 E13.15974
G1 X51.203 Y113.088 E13.20217
G1 X51.136 Y112.239 E13.23049
G1 X51.069 Y110.678 E13.28246
G1 X51.064 Y109.839 E13.31036
G1 X51.081 Y108.899 E13.34163
G1 X51.117 Y108.06 E13.36956
G1 X51.24 Y106.525 E13.42078
G1 X51.345 Y105.619 E13.45112
G1 X51.474 Y104.723 E13.48123
G1 X51.611 Y103.905 E13.50881
G1 X51.938 Y102.323 E13.56254
G1 X52.14 Y101.502 E13.59066
G1 X52.379 Y100.62 E13.62106
G1 X52.718 Y99.506 E13.65978
G1 X53.015 Y98.632 E13.69049
G1 X53.314 Y97.82 E13.71927
G1 X53.902 Y96.379 E13.77103
G1 X54.252 Y95.605 E13.79928
G1 X54.662 Y94.756 E13.83064
G1 X55.211 Y93.702 E13.87017
G1 X55.645 Y92.929 E13.89965
G1 X56.105 Y92.159 E13.92949
G1 X56.945 Y90.855 E13.98108
G1 X57.413 Y90.187 E14.00821
G1 X58.167 Y89.171 E14.05029
G1 X58.713 Y88.484 E14.07947
G1 X59.288 Y87.796 E14.1093
G1 X59.842 Y87.165 E14.13722
G1 X60.961 Y85.981 E14.19141
G1 X61.562 Y85.393 E14.21937
G1 X62.228 Y84.769 E14.24973
G1 X63.061 Y84.038 E14.28659
G1 X64.072 Y83.21 E14.33005
G0 F6000 X64.315 Y83.528
G1 F1200 X65.006 Y82.999 E14.359
G1 X65.7 Y82.496 E14.38751
G1 X66.431 Y81.993 E14.41702
G1 X67.448 Y81.34 E14.45722
G1 X68.418 Y80.762 E14.49477
G1 X69.567 Y80.132 E14.53836
G1 X70.269 Y79.778 E14.56451
G1 X71.393 Y79.249 E14.60582
G1 X72.192 Y78.905 E14.63476
G1 X73.296 Y78.466 E14.67427
G1 X74.086 Y78.182 E14.70219
G1 X75.28 Y77.79 E14.74399
G1 X76.07 Y77.56 E14.77136
G1 X76.989 Y77.317 E14.80298
G1 X77.796 Y77.125 E14.83057
G1 X79.318 Y76.82 E14.88219
G1 X80.121 Y76.691 E14.90924
G1 X81.375 Y76.524 E14.95132
G1 X82.2 Y76.442 E14.9789
G1 X83.436 Y76.355 E15.02011
G1 X84.284 Y76.324 E15.04833
G1 X85.491 Y76.314 E15.08848
G1 X86.325 Y76.334 E15.11622
G1 X87.574 Y76.4 E15.15782
G1 X88.469 Y76.477 E15.1877
G1 X89.331 Y76.573 E15.21655
G1 X90.113 Y76.679 E15.2428
G1 X91.404 Y76.899 E15.28635
G1 X92.199 Y77.057 E15.31331
G1 X93.389 Y77.335 E15.35396
G1 X94.531 Y77.646 E15.39332
G1 X95.722 Y78.014 E15.43479
G1 X96.495 Y78.281 E15.46199
G1 X97.614 Y78.703 E15.50176
G1 X98.417 Y79.036 E15.53068
G1 X99.277 Y79.419 E15.56199
G1 X100.043 Y79.783 E15.5902
G1 X101.393 Y80.486 E15.64082
G1 X102.133 Y80.907 E15.66914
G1 X102.926 Y81.386 E15.69995
G1 X103.898 Y82.012 E15.7384
G1 X104.907 Y82.714 E15.77929
G1 X105.589 Y83.221 E15.80755
G1 X106.297 Y83.776 E15.83747
G1 X107.161 Y84.498 E15.87492
G1 X107.906 Y85.161 E15.90809
G1 X108.454 Y85.672 E15.93301
G1 X109.561 Y86.786 E15.98525
G1 X110.161 Y87.433 E16.0146
G1 X110.755 Y88.11 E16.04455
G1 X111.274 Y88.731 E16.07147
G1 X112.269 Y90.014 E16.12547
G1 X112.733 Y90.661 E16.15195
G1 X113.245 Y91.412 E16.18218
G1 X113.875 Y92.402 E16.22121
G1 X114.491 Y93.447 E16.26156
G1 X114.759 Y93.929 E16.2799
G1 X115.458 Y95.293 E16.33088
G1 X115.822 Y96.071 E16.35945
G1 X116.308 Y97.193 E16.40012
G1 X116.612 Y97.961 E16.42759
G1 X116.928 Y98.82 E16.45803
G1 X117.207 Y99.646 E16.48703
G1 X117.561 Y100.818 E16.52775
G1 X117.869 Y101.98 E16.56773
G1 X118.061 Y102.812 E16.59613
G1 X118.235 Y103.657 E16.62482
G1 X118.493 Y105.192 E16.6766
G1 X118.599 Y106.001 E16.70373
G1 X118.727 Y107.263 E16.74592
G1 X118.765 Y107.781 E16.7632
G1 X118.831 Y109.324 E16.81456
G1 X118.836 Y110.154 E16.84217
G1 X118.819 Y111.084 E16.87311
G1 X118.784 Y111.908 E16.90054
G1 X118.663 Y113.429 E16.95129
G1 X118.559 Y114.324 E16.98126
G1 X118.432 Y115.211 E17.01106
G1 X118.303 Y115.983 E17.03709
G1 X117.974 Y117.581 E17.09136
G1 X117.774 Y118.393 E17.11917
G1 X117.538 Y119.264 E17.14918
G1 X117.204 Y120.363 E17.18739
G1 X116.91 Y121.23 E17.21784
G1 X116.624 Y122.011 E17.2455
G1 X116.163 Y123.155 E17.28652
G1 X115.693 Y124.209 E17.32491
G1 X115.287 Y125.051 E17.356
G1 X114.74 Y126.102 E17.39541
G1 X114.311 Y126.866 E17.42455
G1 X113.88 Y127.591 E17.4526
G1 X113.027 Y128.916 E17.50501
G1 X112.566 Y129.575 E17.53176
G1 X111.82 Y130.58 E17.57339
G1 X111.282 Y131.258 E17.60218
G1 X110.716 Y131.936 E17.63155
G1 X110.165 Y132.562 E17.65929
G1 X109.058 Y133.734 E17.71291
G1 X108.478 Y134.301 E17.73989
G1 X107.566 Y135.148 E17.78129
G1 X106.975 Y135.661 E17.80732
