;FLAVOR:Marlin
;TIME:8211
;Filament used: 3.59263m
;Layer height: 0.2
;MINX:75.514
;MINY:75.514
;MINZ:0.2
;MAXX:144.486
;MAXY:144.486
;MAXZ:25
;TARGET_MACHINE.NAME:Creality Ender-3 Pro
;Generated with Cura_SteamEngine 5.6.0
M82 ;absolute extrusion mode
; Ender 3 Custom Start G-code
G92 E0 ; Reset Extruder
G28 ; Home all axes
G1 Z5.0 F3000 ; Move Z Axis up a bit during heating to not damage bed
M104 S175 ; Start heating up the nozzle most of the way
M190 S60 ; Start heating the bed, wait until target temperature reached
M109 S220.0 ; Finish heating the nozzle
G1 Z2.0 F3000 ; Move Z Axis up little to prevent scratching of Heat Bed
G1 X0.1 Y20 Z0.3 F5000.0 ; Move to start position
G1 X0.1 Y200.0 Z0.3 F1500.0 E15 ; Draw the first line
G1 X0.4 Y200.0 Z0.3 F5000.0 ; Move to side a little
G1 X0.4 Y20 Z0.3 F1500.0 E30 ; Draw the second line
G92 E0 ; Reset Extruder
G1 Z2.0 F3000 ; Move Z Axis up little to prevent scratching of Heat Bed
G1 X5 Y20 Z0.3 F5000.0 ; Move over to prevent blob squish
G92 E0
G92 E0
G1 F1500 E-6.5
;LAYER_COUNT:125
;LAYER:0
M107
G0 F6000 X85.531 Y85.695 Z0.2
;TYPE:SKIRT
G1 F1500 E0
G1 F1200 X86.139 Y85.101 E0.02827
G1 X86.814 Y84.468 E0.05905
G1 X87.647 Y83.737 E0.09591
G1 X88.679 Y82.892 E0.14027
G1 X89.386 Y82.351 E0.16988
G1 X90.096 Y81.836 E0.19906
G1 X90.849 Y81.319 E0.22944
G1 X91.888 Y80.652 E0.2705
G1 X92.884 Y80.06 E0.30904
G1 X94.057 Y79.418 E0.35351
G1 X94.779 Y79.054 E0.38041
G1 X95.927 Y78.515 E0.42259
G1 X96.746 Y78.161 E0.45226
G1 X97.85 Y77.722 E0.49178
G1 X98.686 Y77.422 E0.52132
G1 X99.906 Y77.022 E0.56402
G1 X100.716 Y76.786 E0.59208
G1 X101.654 Y76.539 E0.62435
G1 X102.488 Y76.341 E0.65286
G1 X104.042 Y76.03 E0.70557
G1 X104.865 Y75.899 E0.73328
G1 X106.146 Y75.728 E0.77627
G1 X106.994 Y75.644 E0.80461
G1 X108.257 Y75.555 E0.84672
G1 X109.128 Y75.524 E0.87571
G1 X110.361 Y75.514 E0.91672
G1 X111.217 Y75.536 E0.9452
G1 X112.492 Y75.602 E0.98767
G1 X113.397 Y75.68 E1.01788
G1 X114.289 Y75.781 E1.04774
G1 X115.097 Y75.891 E1.07486
G1 X116.41 Y76.115 E1.11916
G1 X117.231 Y76.278 E1.147
G1 X118.449 Y76.563 E1.1886
G1 X119.617 Y76.882 E1.22887
G1 X120.834 Y77.258 E1.27124
G1 X121.627 Y77.533 E1.29916
G1 X122.77 Y77.964 E1.33978
G1 X123.593 Y78.306 E1.36943
G1 X124.471 Y78.697 E1.40139
G1 X125.263 Y79.073 E1.43055
G1 X126.626 Y79.783 E1.48167
G1 X127.397 Y80.223 E1.5112
G1 X128.21 Y80.714 E1.54278
G1 X129.204 Y81.356 E1.58214
G1 X130.235 Y82.072 E1.62389
G1 X130.933 Y82.591 E1.65282
G1 X131.659 Y83.162 E1.68354
G1 X132.543 Y83.9 E1.72184
G1 X133.302 Y84.576 E1.75565
G1 X133.872 Y85.108 E1.78158
G1 X134.997 Y86.242 E1.83471
G1 X135.613 Y86.905 E1.86481
G1 X136.219 Y87.597 E1.8954
G1 X136.756 Y88.241 E1.92329
G1 X137.769 Y89.548 E1.97829
G1 X138.245 Y90.211 E2.00544
G1 X138.769 Y90.982 E2.03644
G1 X139.415 Y91.996 E2.07643
G1 X140.041 Y93.059 E2.11746
G1 X140.321 Y93.565 E2.1367
G1 X141.032 Y94.954 E2.1886
G1 X141.406 Y95.753 E2.21794
G1 X141.902 Y96.899 E2.25947
G1 X142.212 Y97.685 E2.28757
G1 X142.536 Y98.564 E2.31873
G1 X142.823 Y99.414 E2.34857
G1 X143.185 Y100.614 E2.39026
G1 X143.499 Y101.8 E2.43107
G1 X143.695 Y102.65 E2.46008
G1 X143.869 Y103.495 E2.48877
G1 X144.137 Y105.088 E2.5425
G1 X144.245 Y105.921 E2.57044
G1 X144.375 Y107.205 E2.61336
G1 X144.415 Y107.747 E2.63144
G1 X144.481 Y109.32 E2.6838
G1 X144.486 Y110.168 E2.71201
G1 X144.469 Y111.118 E2.74361
G1 X144.432 Y111.972 E2.77204
G1 X144.307 Y113.521 E2.82373
G1 X144.201 Y114.438 E2.85443
G1 X144.071 Y115.343 E2.88484
G1 X143.937 Y116.145 E2.91188
G1 X143.6 Y117.773 E2.96718
G1 X143.396 Y118.603 E2.99561
G1 X143.154 Y119.496 E3.02638
G1 X142.812 Y120.619 E3.06543
G1 X142.512 Y121.506 E3.09657
G1 X142.216 Y122.311 E3.1251
G1 X141.743 Y123.481 E3.16707
G1 X141.263 Y124.557 E3.20626
G1 X140.847 Y125.421 E3.23815
G1 X140.288 Y126.494 E3.27839
G1 X139.849 Y127.274 E3.30816
G1 X139.402 Y128.025 E3.33723
G1 X138.533 Y129.375 E3.39063
G1 X138.065 Y130.043 E3.41776
G1 X137.296 Y131.078 E3.46064
G1 X136.746 Y131.77 E3.49004
G1 X136.166 Y132.464 E3.52013
G1 X135.597 Y133.112 E3.54881
G1 X134.479 Y134.295 E3.60295
G1 X133.872 Y134.887 E3.63115
G1 X132.94 Y135.752 E3.67344
G1 X132.332 Y136.279 E3.7002
G1 X131.321 Y137.108 E3.74369
G1 X130.627 Y137.639 E3.77275
G1 X129.908 Y138.159 E3.80226
G1 X129.151 Y138.681 E3.83285
G1 X128.112 Y139.348 E3.87391
G1 X127.116 Y139.94 E3.91245
G1 X125.943 Y140.582 E3.95692
G1 X125.221 Y140.946 E3.98382
G1 X124.073 Y141.485 E4.026
G1 X123.254 Y141.839 E4.05567
G1 X122.15 Y142.278 E4.09519
G1 X121.314 Y142.578 E4.12473
G1 X120.094 Y142.978 E4.16743
G1 X119.284 Y143.214 E4.19549
G1 X118.346 Y143.461 E4.22776
G1 X117.512 Y143.659 E4.25627
G1 X115.958 Y143.97 E4.30898
G1 X115.135 Y144.101 E4.33669
G1 X113.854 Y144.272 E4.37968
G1 X113.006 Y144.356 E4.40802
G1 X111.743 Y144.445 E4.45013
G1 X110.872 Y144.476 E4.47912
G1 X109.639 Y144.486 E4.52013
G1 X108.783 Y144.464 E4.54861
G1 X107.508 Y144.398 E4.59108
G1 X106.603 Y144.32 E4.62129
G1 X105.711 Y144.219 E4.65115
G1 X104.903 Y144.109 E4.67827
G1 X103.59 Y143.885 E4.72257
G1 X102.769 Y143.722 E4.75041
G1 X101.551 Y143.437 E4.79201
G1 X100.383 Y143.118 E4.83228
G1 X99.166 Y142.742 E4.87465
G1 X98.373 Y142.467 E4.90257
G1 X97.23 Y142.036 E4.9432
G1 X96.407 Y141.694 E4.97284
G1 X95.529 Y141.303 E5.00481
G1 X94.737 Y140.927 E5.03397
G1 X93.374 Y140.217 E5.08508
G1 X92.603 Y139.777 E5.11461
G1 X91.79 Y139.286 E5.1462
G1 X90.798 Y138.646 E5.18546
G1 X90.028 Y138.115 E5.21657
G1 X89.304 Y137.589 E5.24633
G1 X88.34 Y136.837 E5.287
G1 X87.704 Y136.313 E5.31441
G1 X86.694 Y135.42 E5.35925
G1 X85.879 Y134.649 E5.39656
G1 X84.998 Y133.753 E5.43836
G1 X84.375 Y133.081 E5.46883
G1 X83.777 Y132.398 E5.49903
G1 X83.047 Y131.514 E5.53716
G1 X82.432 Y130.722 E5.57051
G1 X81.757 Y129.789 E5.60881
G1 X81.046 Y128.738 E5.65102
G1 X80.585 Y128.004 E5.67984
G1 X79.959 Y126.941 E5.72087
G1 X79.679 Y126.435 E5.74011
G1 X78.968 Y125.046 E5.79201
G1 X78.596 Y124.25 E5.82123
G1 X78.22 Y123.391 E5.85242
G1 X77.896 Y122.597 E5.88094
G1 X77.463 Y121.431 E5.92231
G1 X77.179 Y120.591 E5.9518
G1 X76.816 Y119.387 E5.99363
G1 X76.584 Y118.529 E6.02319
G1 X76.305 Y117.349 E6.06352
G1 X76.127 Y116.479 E6.09306
G1 X75.912 Y115.233 E6.13511
G1 X75.793 Y114.399 E6.16313
G1 X75.654 Y113.119 E6.20595
G1 X75.586 Y112.256 E6.23475
G1 X75.519 Y110.68 E6.28721
G1 X75.514 Y109.832 E6.31542
G1 X75.531 Y108.882 E6.34702
G1 X75.568 Y108.028 E6.37545
G1 X75.693 Y106.479 E6.42714
G1 X75.799 Y105.562 E6.45784
G1 X75.929 Y104.657 E6.48825
G1 X76.069 Y103.824 E6.51634
G1 X76.4 Y102.227 E6.57059
G1 X76.604 Y101.397 E6.59902
G1 X76.846 Y100.504 E6.62979
G1 X77.189 Y99.377 E6.66897
G1 X77.49 Y98.494 E6.7
G1 X77.794 Y97.669 E6.72924
G1 X78.388 Y96.214 E6.78151
G1 X78.742 Y95.431 E6.81009
G1 X79.157 Y94.571 E6.84185
G1 X79.712 Y93.506 E6.8818
G1 X80.152 Y92.724 E6.91164
G1 X80.619 Y91.942 E6.94193
G1 X81.467 Y90.625 E6.99403
G1 X81.935 Y89.957 E7.02116
G1 X82.704 Y88.922 E7.06405
G1 X83.256 Y88.227 E7.09357
G1 X83.837 Y87.532 E7.1237
G1 X84.401 Y86.89 E7.15212
G1 X85.531 Y85.695 E7.20682
G0 F6000 X85.811 Y85.981
G1 F1200 X86.412 Y85.393 E7.23479
G1 X87.078 Y84.769 E7.26514
G1 X87.911 Y84.038 E7.302
G1 X88.922 Y83.21 E7.34547
G1 X89.621 Y82.675 E7.37474
G1 X90.323 Y82.166 E7.40358
G1 X91.065 Y81.656 E7.43353
G1 X92.093 Y80.996 E7.47416
G1 X93.076 Y80.411 E7.51221
G1 X94.237 Y79.775 E7.55624
G1 X94.949 Y79.416 E7.58276
G1 X96.085 Y78.882 E7.62451
G1 X96.894 Y78.533 E7.65381
G1 X97.998 Y78.094 E7.69333
G1 X98.811 Y77.802 E7.72206
G1 X100.018 Y77.406 E7.76431
G1 X100.818 Y77.173 E7.79202
G1 X101.746 Y76.928 E7.82395
G1 X102.567 Y76.733 E7.85201
G1 X104.105 Y76.425 E7.90418
G1 X104.918 Y76.295 E7.93157
G1 X106.185 Y76.126 E7.97408
G1 X107.022 Y76.043 E8.00206
G1 X108.271 Y75.955 E8.0437
G1 X109.131 Y75.924 E8.07232
G1 X110.351 Y75.914 E8.1129
G1 X111.196 Y75.935 E8.14101
G1 X112.458 Y76.001 E8.18305
G1 X113.363 Y76.079 E8.21326
G1 X114.235 Y76.177 E8.24244
G1 X115.03 Y76.285 E8.26913
G1 X116.332 Y76.507 E8.31306
G1 X117.14 Y76.667 E8.34045
G1 X118.344 Y76.949 E8.38158
G1 X119.499 Y77.264 E8.4214
G1 X120.703 Y77.636 E8.46331
G1 X121.486 Y77.907 E8.49087
G1 X122.617 Y78.334 E8.53108
G1 X123.43 Y78.671 E8.56035
G1 X124.299 Y79.058 E8.59199
G1 X125.078 Y79.428 E8.62068
G1 X126.441 Y80.138 E8.67179
G1 X127.19 Y80.565 E8.70047
G1 X127.993 Y81.05 E8.73167
G1 X128.976 Y81.684 E8.77057
G1 X129.996 Y82.393 E8.81189
G1 X130.686 Y82.906 E8.84049
G1 X131.403 Y83.469 E8.87081
G1 X132.277 Y84.199 E8.90868
G1 X133.029 Y84.868 E8.94216
G1 X133.588 Y85.39 E8.9676
G1 X134.704 Y86.514 E9.02028
G1 X135.312 Y87.169 E9.05
G1 X135.912 Y87.853 E9.08027
G1 X136.44 Y88.486 E9.10768
G1 X137.444 Y89.781 E9.16218
G1 X137.914 Y90.436 E9.189
G1 X138.432 Y91.197 E9.21962
G1 X139.07 Y92.199 E9.25912
G1 X139.691 Y93.253 E9.29981
G1 X139.965 Y93.747 E9.3186
G1 X140.67 Y95.123 E9.37002
G1 X141.039 Y95.912 E9.399
G1 X141.53 Y97.046 E9.4401
G1 X141.837 Y97.823 E9.46788
G1 X142.157 Y98.692 E9.49868
G1 X142.44 Y99.53 E9.5281
G1 X142.798 Y100.716 E9.56931
G1 X143.109 Y101.89 E9.6097
G1 X143.303 Y102.731 E9.63841
G1 X143.477 Y103.576 E9.6671
G1 X143.74 Y105.14 E9.71985
G1 X143.847 Y105.961 E9.74739
G1 X143.976 Y107.234 E9.78994
G1 X144.015 Y107.764 E9.80762
G1 X144.081 Y109.322 E9.85949
G1 X144.086 Y110.161 E9.88739
G1 X144.069 Y111.101 E9.91866
G1 X144.033 Y111.94 E9.94659
G1 X143.91 Y113.475 E9.99781
G1 X143.805 Y114.381 E10.02815
G1 X143.677 Y115.277 E10.05825
G1 X143.545 Y116.064 E10.08479
G1 X143.212 Y117.677 E10.13957
G1 X143.01 Y118.498 E10.16769
G1 X142.771 Y119.38 E10.19809
G1 X142.433 Y120.491 E10.23671
G1 X142.136 Y121.368 E10.26751
G1 X141.845 Y122.161 E10.2956
G1 X141.378 Y123.318 E10.3371
G1 X140.903 Y124.383 E10.37588
G1 X140.492 Y125.236 E10.40738
G1 X139.939 Y126.298 E10.4472
G1 X139.505 Y127.07 E10.47666
G1 X139.066 Y127.808 E10.50522
G1 X138.205 Y129.145 E10.55811
G1 X137.737 Y129.813 E10.58524
G1 X136.983 Y130.829 E10.62732
G1 X136.439 Y131.514 E10.65641
G1 X135.866 Y132.2 E10.68614
G1 X135.306 Y132.837 E10.71435
G1 X134.188 Y134.02 E10.76849
G1 X133.6 Y134.594 E10.79582
G1 X132.678 Y135.45 E10.83766
G1 X132.078 Y135.97 E10.86407
G1 X131.078 Y136.79 E10.90708
G1 X130.392 Y137.315 E10.93582
G1 X129.681 Y137.83 E10.96502
G1 X128.935 Y138.344 E10.99515
G1 X127.907 Y139.004 E11.03578
G1 X126.924 Y139.589 E11.07382
G1 X125.763 Y140.225 E11.11785
G1 X125.051 Y140.584 E11.14438
G1 X123.915 Y141.118 E11.18613
G1 X123.106 Y141.467 E11.21543
G1 X122.002 Y141.906 E11.25495
G1 X121.189 Y142.198 E11.28368
G1 X119.982 Y142.594 E11.32593
G1 X119.182 Y142.827 E11.35364
G1 X118.254 Y143.072 E11.38556
G1 X117.433 Y143.267 E11.41363
G1 X115.895 Y143.575 E11.4658
G1 X115.082 Y143.705 E11.49318
G1 X113.815 Y143.874 E11.5357
G1 X112.978 Y143.957 E11.56367
G1 X111.729 Y144.045 E11.60532
G1 X110.869 Y144.076 E11.63394
G1 X109.649 Y144.086 E11.67452
G1 X108.804 Y144.065 E11.70263
G1 X107.542 Y143.999 E11.74466
G1 X106.637 Y143.921 E11.77488
G1 X105.765 Y143.823 E11.80406
G1 X104.97 Y143.715 E11.83075
G1 X103.668 Y143.493 E11.87468
G1 X102.86 Y143.333 E11.90207
G1 X101.656 Y143.051 E11.9432
G1 X100.501 Y142.736 E11.98302
G1 X99.297 Y142.364 E12.02493
G1 X98.514 Y142.093 E12.05249
G1 X97.383 Y141.666 E12.0927
G1 X96.57 Y141.329 E12.12197
G1 X95.701 Y140.942 E12.15361
G1 X94.922 Y140.572 E12.18229
G1 X93.559 Y139.862 E12.23341
G1 X92.81 Y139.435 E12.26209
G1 X92.007 Y138.95 E12.29329
G1 X91.025 Y138.317 E12.33215
G1 X90.263 Y137.791 E12.36294
G1 X89.55 Y137.273 E12.39225
G1 X88.594 Y136.528 E12.43257
G1 X87.969 Y136.013 E12.4595
G1 X86.969 Y135.13 E12.50387
G1 X86.164 Y134.368 E12.54074
G1 X85.291 Y133.481 E12.58213
G1 X84.676 Y132.818 E12.61221
G1 X84.085 Y132.143 E12.64205
G1 X83.363 Y131.269 E12.67976
G1 X82.756 Y130.487 E12.71268
G1 X82.088 Y129.565 E12.75055
G1 X81.385 Y128.525 E12.7923
G1 X80.93 Y127.801 E12.82074
G1 X80.309 Y126.747 E12.86143
G1 X80.035 Y126.253 E12.88022
G1 X79.33 Y124.877 E12.93164
G1 X78.962 Y124.09 E12.96054
G1 X78.59 Y123.24 E12.9914
G1 X78.271 Y122.458 E13.01949
G1 X77.842 Y121.303 E13.06047
G1 X77.562 Y120.475 E13.08954
G1 X77.202 Y119.282 E13.13099
G1 X76.973 Y118.437 E13.16011
G1 X76.697 Y117.269 E13.20002
G1 X76.521 Y116.411 E13.22916
G1 X76.308 Y115.176 E13.27084
G1 X76.191 Y114.356 E13.29839
G1 X76.053 Y113.088 E13.34081
G1 X75.986 Y112.239 E13.36914
G1 X75.919 Y110.678 E13.4211
G1 X75.914 Y109.839 E13.44901
G1 X75.931 Y108.899 E13.48028
G1 X75.967 Y108.06 E13.50821
G1 X76.09 Y106.525 E13.55943
G1 X76.195 Y105.619 E13.58976
G1 X76.324 Y104.723 E13.61987
G1 X76.461 Y103.905 E13.64746
G1 X76.788 Y102.323 E13.70119
G1 X76.99 Y101.502 E13.72931
G1 X77.229 Y100.62 E13.7597
G1 X77.568 Y99.506 E13.79843
G1 X77.865 Y98.632 E13.82913
G1 X78.164 Y97.82 E13.85791
G1 X78.752 Y96.379 E13.90968
G1 X79.102 Y95.605 E13.93793
G1 X79.512 Y94.756 E13.96929
G1 X80.061 Y93.702 E14.00881
G1 X80.495 Y92.929 E14.0383
G1 X80.955 Y92.159 E14.06813
G1 X81.795 Y90.855 E14.11972
G1 X82.263 Y90.187 E14.14685
G1 X83.017 Y89.171 E14.18893
G1 X83.563 Y88.484 E14.21812
G1 X84.138 Y87.796 E14.24794
G1 X84.692 Y87.165 E14.27587
G1 X85.811 Y85.981 E14.33005
G0 F6000 X86.091 Y86.267
G1 F1200 X86.685 Y85.685 E14.35771
G1 X87.342 Y85.07 E14.38765
G1 X88.175 Y84.339 E14.42451
G1 X89.165 Y83.528 E14.46707
G1 X89.856 Y82.999 E14.49602
G1 X90.55 Y82.496 E14.52452
G1 X91.281 Y81.993 E14.55404
G1 X92.298 Y81.34 E14.59423
G1 X93.268 Y80.762 E14.63179
G1 X94.417 Y80.132 E14.67537
G1 X95.119 Y79.778 E14.70152
G1 X96.243 Y79.249 E14.74284
G1 X97.042 Y78.905 E14.77177
G1 X98.146 Y78.466 E14.81129
G1 X98.936 Y78.182 E14.83921
G1 X100.13 Y77.79 E14.88101
G1 X100.92 Y77.56 E14.90838
G1 X101.839 Y77.317 E14.93999
G1 X102.646 Y77.125 E14.96758
G1 X104.168 Y76.82 E15.01921
G1 X104.971 Y76.691 E15.04626
G1 X106.225 Y76.524 E15.08834
G1 X107.05 Y76.442 E15.11591
G1 X108.286 Y76.355 E15.15712
G1 X109.134 Y76.324 E15.18535
G1 X110.341 Y76.314 E15.22549
G1 X111.175 Y76.334 E15.25324
G1 X112.424 Y76.4 E15.29484
G1 X113.319 Y76.477 E15.32472
G1 X114.181 Y76.573 E15.35357
G1 X114.963 Y76.679 E15.37981
G1 X116.254 Y76.899 E15.42337
G1 X117.049 Y77.057 E15.45033
G1 X118.239 Y77.335 E15.49098
G1 X119.381 Y77.646 E15.53034
G1 X120.572 Y78.014 E15.5718
G1 X121.345 Y78.281 E15.599
G1 X122.464 Y78.703 E15.63878
G1 X123.267 Y79.036 E15.66769
G1 X124.127 Y79.419 E15.69901
G1 X124.893 Y79.783 E15.72721
G1 X126.243 Y80.486 E15.77784
G1 X126.983 Y80.907 E15.80615
G1 X127.776 Y81.386 E15.83697
G1 X128.748 Y82.012 E15.87542
G1 X129.757 Y82.714 E15.9163
G1 X130.439 Y83.221 E15.94457
G1 X131.147 Y83.776 E15.97449
G1 X132.011 Y84.498 E16.01194
G1 X132.756 Y85.161 E16.04511
G1 X133.304 Y85.672 E16.07003
G1 X134.411 Y86.786 E16.12226
G1 X135.011 Y87.433 E16.15161
G1 X135.605 Y88.11 E16.18157
G1 X136.124 Y88.731 E16.20849
G1 X137.119 Y90.014 E16.26249
G1 X137.583 Y90.661 E16.28897
G1 X138.095 Y91.412 E16.3192
G1 X138.725 Y92.402 E16.35823
G1 X139.341 Y93.447 E16.39858
G1 X139.609 Y93.929 E16.41692
G1 X140.308 Y95.293 E16.4679
G1 X140.672 Y96.071 E16.49646
G1 X141.158 Y97.193 E16.53713
G1 X141.462 Y97.961 E16.5646
G1 X141.778 Y98.82 E16.59505
G1 X142.057 Y99.646 E16.62405
G1 X142.411 Y100.818 E16.66477
G1 X142.719 Y101.98 E16.70475
G1 X142.911 Y102.812 E16.73315
G1 X143.085 Y103.657 E16.76184
G1 X143.343 Y105.192 E16.81361
G1 X143.449 Y106.001 E16.84075
G1 X143.577 Y107.263 E16.88294
G1 X143.615 Y107.781 E16.90021
G1 X143.681 Y109.324 E16.95158
G1 X143.686 Y110.154 E16.97919
G1 X143.669 Y111.084 E17.01013
G1 X143.634 Y111.908 E17.03756
G1 X143.513 Y113.429 E17.08831
G1 X143.409 Y114.324 E17.11827
G1 X143.282 Y115.211 E17.14808
G1 X143.153 Y115.983 E17.17411
G1 X142.824 Y117.581 E17.22837
G1 X142.624 Y118.393 E17.25619
G1 X142.388 Y119.264 E17.2862
G1 X142.054 Y120.363 E17.32441
G1 X141.76 Y121.23 E17.35485
G1 X141.474 Y122.011 E17.38252
G1 X141.013 Y123.155 E17.42354
G1 X140.543 Y124.209 E17.46192
G1 X140.137 Y125.051 E17.49302
G1 X139.59 Y126.102 E17.53242
G1 X139.161 Y126.866 E17.56157
G1 X138.73 Y127.591 E17.58962
G1 X137.877 Y128.916 E17.64203
G1 X137.416 Y129.575 E17.66878
